T: Micho Russell's
M: 4/4
L: 1/8
K: Gmaj
|: GED ~G3 FD (3Bcd | B ~G3  ABcA | d2 cA B ~G3 | (3Bcd cA GFE2 |
D ~G3 FD (3Bcd |B ~G3  ABcA |d2 cA B ~G3 |(3Bcd cA G3 z :| (3Bcd||
|:  ~g3 e fdde | fdge fd d2 | ~g3 e fddc | defd g3 z |
g bag ~f3 | d (3Bcd BGA ~F3| d2 cA BG G2 | (3Bcd cA G3 z :|
